atec-cache-apcu/assets/img/system/calender-icon.svg

<svg width="666.667" height="666.667" viewBox="0 0 20 20" xmlns="http://www.w3.org/2000/svg"><path d="M0 17c0 1.7 1.3 3 3 3h14c1.7 0 3-1.3 3-3V9H0zM17 2h-2V1c0-.6-.4-1-1-1s-1 .4-1 1v1H7V1c0-.6-.4-1-1-1S5 .4 5 1v1H3C1.3 2 0 3.3 0 5v2h20V5c0-1.7-1.3-3-3-3z"/></svg>

<?xml version="1.0" encoding="UTF-8" standalone="no"?>
<svg
   width="666.66669"
   height="666.66669"
   viewBox="0 0 20.000001 20.000001"
   version="1.1"
   id="svg1"
   sodipodi:docname="calender-icon.svg"
   inkscape:version="1.4 (e7c3feb1, 2024-10-09)"
   xmlns:inkscape="http://www.inkscape.org/namespaces/inkscape"
   xmlns:sodipodi="http://sodipodi.sourceforge.net/DTD/sodipodi-0.dtd"
   xmlns="http://www.w3.org/2000/svg"
   xmlns:svg="http://www.w3.org/2000/svg">
  <defs
     id="defs1" />
  <sodipodi:namedview
     id="namedview1"
     pagecolor="#ffffff"
     bordercolor="#000000"
     borderopacity="0.25"
     inkscape:showpageshadow="2"
     inkscape:pageopacity="0.0"
     inkscape:pagecheckerboard="0"
     inkscape:deskcolor="#d1d1d1"
     inkscape:zoom="0.0325"
     inkscape:cx="338.46154"
     inkscape:cy="323.07692"
     inkscape:window-width="1248"
     inkscape:window-height="250"
     inkscape:window-x="0"
     inkscape:window-y="25"
     inkscape:window-maximized="0"
     inkscape:current-layer="svg1" />
  <path
     d="m 0,17 c 0,1.7 1.3,3 3,3 h 14 c 1.7,0 3,-1.3 3,-3 V 9 H 0 Z M 17,2 H 15 V 1 C 15,0.4 14.6,0 14,0 13.4,0 13,0.4 13,1 V 2 H 7 V 1 C 7,0.4 6.6,0 6,0 5.4,0 5,0.4 5,1 V 2 H 3 C 1.3,2 0,3.3 0,5 V 7 H 20 V 5 C 20,3.3 18.7,2 17,2 Z"
     id="path1" />
</svg>
